X:362
T:Twin Sisters
R:polka 32
M: 4/4
L: 1/8
R: reel
K:Gmaj
D2|:G2B2 ABcA|G2g2 d4|cBAc B2G2|ABAG E2D2|
G2B2 ABcA|G2g2 d4|cBAc BAGB|1 A2F2 G2 (3DEF:|2 A2F2 G2Bd||
|:g2g2 fed2|efge d2B2|cBAc B2G2|ABAG E2D2|
g2g2 fed2|efge d2B2|cBAc BAGB|1 A2F2 G2Bd:|2 A2F2 G4||

